X:52
T:The Coldstream March
N:page 30 on manuscript
M:C
L:1/8
K:C
z (3G/A/B/ | c3 z/2 a/ g>fe>d | c2 G2 z2 c>G | A2 f2 z2 f>A | G2 e2 z2 c>e | d>cB>A G>F d>F | (TF2 {EF}E2) z c>e |
d3 c/d/ e>dc>B | TB2 A2 z2 A>c | B2 d>B A2 c>A | B2 d>B A2 c>A | B>AB>(c {B}TA4) | G2 G>G G>GG>G | G6 :||
z2 (G//A//B//c//) | d2 B>c d>Gg>d | (Te2{de}) d2 z2 d>e | f>fe>d e>ed>c | g2 d>B G2 (zG/A/B/) | c3 a g>fe>d | c2 G2 z2 c>G |
A>Fc>A f>ed>c | B>c d2 z2 f>d | e2 g>e d2 f>d | e2 g>e d2 f>d | e>de>f e2 Td2 | c2 c>c c>cc>c | c6 ||

